images/decorative/skills/vsc-icon.svg

<svg width="512" height="508" viewBox="0 0 512 508" fill="none" xmlns="http://www.w3.org/2000/svg">
<mask id="mask0_102_1168" style="mask-type:alpha" maskUnits="userSpaceOnUse" x="0" y="0" width="511" height="508">
<path d="M361.655 505.21C369.688 508.34 378.848 508.139 386.956 504.238L491.958 453.713C502.991 448.404 510.008 437.236 510.008 424.986V82.394C510.008 70.1435 502.991 58.9769 491.958 53.6676L386.956 3.14104C376.316 -1.97884 363.863 -0.72479 354.525 6.06436C353.19 7.03421 351.919 8.11706 350.728 9.3104L149.713 192.699L62.1556 126.236C54.0048 120.049 42.6042 120.556 35.0341 127.442L6.95156 152.987C-2.30805 161.41 -2.31867 175.977 6.92863 184.414L82.8615 253.689L6.92863 322.964C-2.31867 331.401 -2.30805 345.968 6.95156 354.391L35.0341 379.936C42.6042 386.823 54.0048 387.329 62.1556 381.143L149.713 314.678L350.728 498.068C353.908 501.25 357.641 503.646 361.655 505.21ZM382.584 137.912L230.059 253.689L382.584 369.466V137.912Z" fill="white"/>
</mask>
<g mask="url(#mask0_102_1168)">
<path d="M492.27 53.7463L387.186 3.15013C375.024 -2.70636 360.486 -0.23596 350.94 9.30995L6.93283 322.964C-2.32008 331.401 -2.30944 345.968 6.95578 354.391L35.0554 379.936C42.6302 386.823 54.0378 387.329 62.1934 381.143L476.457 66.8723C490.355 56.329 510.317 66.2415 510.317 83.6862V82.4661C510.317 70.221 503.302 59.0584 492.27 53.7463Z" fill="#0065A9"/>
<path d="M492.27 453.632L387.186 504.228C375.024 510.083 360.486 507.613 350.94 498.068L6.93283 184.414C-2.32008 175.977 -2.30944 161.41 6.95578 152.987L35.0554 127.441C42.6302 120.555 54.0378 120.048 62.1934 126.236L476.457 440.505C490.355 451.048 510.317 441.137 510.317 423.691V424.912C510.317 437.156 503.302 448.318 492.27 453.632Z" fill="#007ACC"/>
<path d="M386.857 504.269C374.69 510.12 360.153 507.647 350.606 498.101C362.368 509.863 382.482 501.531 382.482 484.896V22.5456C382.482 5.91052 362.368 -2.42043 350.606 9.34239C360.153 -0.204404 374.69 -2.67829 386.857 3.17303L491.922 53.6997C502.963 59.009 509.984 70.1755 509.984 82.4261V425.018C509.984 437.268 502.963 448.435 491.922 453.744L386.857 504.269Z" fill="#1F9CF0"/>
<path d="M361.656 505.21C369.688 508.338 378.849 508.139 386.955 504.238L491.957 453.712C502.992 448.402 510.008 437.236 510.008 424.986V82.3938C510.008 70.1433 502.992 58.9767 491.959 53.6674L386.955 3.1409C376.317 -1.979 363.863 -0.724946 354.524 6.0642C353.191 7.03405 351.92 8.1169 350.726 9.31024L149.713 192.699L62.1555 126.236C54.0049 120.049 42.6041 120.556 35.034 127.442L6.95156 152.987C-2.30805 161.41 -2.31867 175.977 6.92863 184.414L82.8616 253.689L6.92863 322.964C-2.31867 331.401 -2.30805 345.968 6.95156 354.392L35.034 379.936C42.6041 386.823 54.0049 387.329 62.1555 381.143L149.713 314.679L350.726 498.068C353.906 501.25 357.641 503.646 361.656 505.21ZM382.584 137.911L230.06 253.689L382.584 369.467V137.911Z" fill="url(#paint0_linear_102_1168)" fill-opacity="0.25"/>
</g>
<defs>
<linearGradient id="paint0_linear_102_1168" x1="255.004" y1="-0.000154575" x2="255.004" y2="507.378" gradientUnits="userSpaceOnUse">
<stop stop-color="white"/>
<stop offset="1" stop-color="white" stop-opacity="0"/>
</linearGradient>
</defs>
</svg>

<svg width="512" height="508" fill="none" xmlns="http://www.w3.org/2000/svg"><mask id="a" style="mask-type:alpha" maskUnits="userSpaceOnUse" x="0" y="0" width="511" height="508"><path d="M361.655 505.21a31.742 31.742 0 0 0 25.301-.972l105.002-50.525a31.88 31.88 0 0 0 18.05-28.727V82.394a31.878 31.878 0 0 0-18.05-28.726L386.956 3.14a31.753 31.753 0 0 0-36.228 6.17L149.713 192.698l-87.557-66.463c-8.151-6.187-19.552-5.68-27.122 1.206L6.952 152.987c-9.26 8.423-9.27 22.99-.023 31.427l75.933 69.275-75.933 69.275c-9.248 8.437-9.237 23.004.023 31.427l28.082 25.545c7.57 6.887 18.97 7.393 27.122 1.207l87.557-66.465 201.015 183.39a31.707 31.707 0 0 0 10.927 7.142Zm20.929-367.298L230.059 253.689l152.525 115.777V137.912Z" fill="#fff"/></mask><g mask="url(#a)"><path d="M492.27 53.746 387.186 3.15a31.77 31.77 0 0 0-36.246 6.16L6.933 322.964c-9.253 8.437-9.242 23.004.023 31.427l28.1 25.545c7.574 6.887 18.982 7.393 27.137 1.207l414.264-314.27c13.898-10.544 33.86-.632 33.86 16.813v-1.22a31.876 31.876 0 0 0-18.047-28.72Z" fill="#0065A9"/><path d="m492.27 453.632-105.084 50.596a31.774 31.774 0 0 1-36.246-6.16L6.933 184.414c-9.253-8.437-9.242-23.004.023-31.427l28.1-25.546c7.574-6.886 18.982-7.393 27.137-1.205l414.264 314.269c13.898 10.543 33.86.632 33.86-16.814v1.221a31.88 31.88 0 0 1-18.047 28.72Z" fill="#007ACC"/><path d="M386.857 504.269a31.787 31.787 0 0 1-36.251-6.168c11.762 11.762 31.876 3.43 31.876-13.205V22.546c0-16.635-20.114-24.966-31.876-13.204a31.786 31.786 0 0 1 36.251-6.169L491.922 53.7a31.875 31.875 0 0 1 18.062 28.726v342.592a31.875 31.875 0 0 1-18.062 28.726l-105.065 50.525Z" fill="#1F9CF0"/><path d="M361.656 505.21a31.745 31.745 0 0 0 25.299-.972l105.002-50.526a31.876 31.876 0 0 0 18.051-28.726V82.394a31.877 31.877 0 0 0-18.049-28.727L386.955 3.141a31.753 31.753 0 0 0-36.229 6.17L149.713 192.698l-87.557-66.463c-8.151-6.187-19.552-5.68-27.122 1.206L6.952 152.987c-9.26 8.423-9.27 22.99-.023 31.427l75.933 69.275-75.933 69.275c-9.248 8.437-9.237 23.004.023 31.428l28.082 25.544c7.57 6.887 18.97 7.393 27.122 1.207l87.557-66.464 201.013 183.389a31.71 31.71 0 0 0 10.93 7.142Zm20.928-367.299L230.06 253.689l152.524 115.778V137.911Z" fill="url(#b)" fill-opacity=".25"/></g><defs><linearGradient id="b" x1="255.004" y1="0" x2="255.004" y2="507.378" gradientUnits="userSpaceOnUse"><stop stop-color="#fff"/><stop offset="1" stop-color="#fff" stop-opacity="0"/></linearGradient></defs></svg>
